X: 1
T: Where's the Red Chook?  [A]
C: Ross Smithard
N: Ross Smithard is an Australian Fiddler.
N: "Chook" is Australian for chicken.
F: http://www.youtube.com/watch?v=nVMnuv-YMr4
F: http://info.therealschoolofmusic.com/traditional-music-project/wheres-the-red-chook-/
R: reel
Z: 2012 John Chambers <jc:trillian.mit.edu>
M: C|
L: 1/8
K: A
cd \
| "A"e2cd e2cd | eaed cBA2 \
|1,3 EFA2 A3B | "E7"c2B2- B2 \
:|2,4 EFA2 "(E7)"A3c | "A"B2A4 :|
|: A2 \
| "E7"B4 B2AB | "A"c2B2 A2cc \
|1,3 "D"d4 "(E7)"dcB2 | "A"c4 cB \
:|2,4 "D"dcBA "E7"GFG2 | "A"A4- A2 :|
